icons/project-roadmap-16.svg

<svg xmlns="http://www.w3.org/2000/svg" width="16" height="16" viewBox="0 0 16 16">
  <defs/>
  <path d="M4.75,7 A0.75 0.75 0 0 0 4.75,8.5 L9.25,8.5 A0.75 0.75 0 0 0 9.25,7 L4.75,7 Z M5,4.75 A0.75 0.75 0 0 1 5.75,4 L11.25,4 A0.75 0.75 0 0 1 11.25,5.5 L5.75,5.5 A0.75 0.75 0 0 1 5,4.75 Z M6.75,10 A0.75 0.75 0 0 0 6.75,11.5 L11.25,11.5 A0.75 0.75 0 0 0 11.25,10 L6.75,10 Z"/>
  <path d="M0,1.75 C0,0.784 0.784,0 1.75,0 L14.25,0 C15.216,0 16,0.784 16,1.75 L16,14.25 C16,15.216 15.216,16 14.25,16 L1.75,16 C0.784,16 0,15.216 0,14.25 Z M1.75,1.5 C1.612,1.5 1.5,1.612 1.5,1.75 L1.5,14.25 C1.5,14.388 1.612,14.5 1.75,14.5 L14.25,14.5 C14.388,14.5 14.5,14.388 14.5,14.25 L14.5,1.75 C14.5,1.612 14.388,1.5 14.25,1.5 Z"/>
</svg>

<svg xmlns="http://www.w3.org/2000/svg" width="16" height="16" viewBox="0 0 16 16"><path d="M4.75 7a.75.75 0 000 1.5h4.5a.75.75 0 000-1.5h-4.5zM5 4.75A.75.75 0 015.75 4h5.5a.75.75 0 010 1.5h-5.5A.75.75 0 015 4.75zM6.75 10a.75.75 0 000 1.5h4.5a.75.75 0 000-1.5h-4.5z"/><path fill-rule="evenodd" d="M0 1.75C0 .784.784 0 1.75 0h12.5C15.216 0 16 .784 16 1.75v12.5A1.75 1.75 0 0114.25 16H1.75A1.75 1.75 0 010 14.25V1.75zm1.75-.25h12.5a.25.25 0 01.25.25v12.5a.25.25 0 01-.25.25H1.75a.25.25 0 01-.25-.25V1.75a.25.25 0 01.25-.25z"/></svg>
